X:7019
T:The Lighthouse Sisters
R:jig
C:Paul S.Cranford
D:The Lighthouse, Cranford Publications
B:The Lighthouse Collection, ISBN 0-9691181-5-5
N:Contacts ...
N:..... Cranford Publications <http://www.cranfordpub.com>
Q:300
O:England
L:1/8
M:6/8
K:D
dAB dAF|dcd efe|dAB dAF|EFE efe|
dAB dAF|dcd efe|agf fed|ABd efe:|
dcB BcB|dcB efe|dcB B3|cAc efe|dcB BcB|
dcB efe|[1agf fed|ABd efe:|[2agf gfe|fed efe|]


